X:1
T:Lady of the Lake [6]
M:2/4
L:1/8
R:reel
B:George P. Knauff - Virginia Reels, vol. III (Baltimore, 1839)
Z:AK/Fiddler's Companion
K:Ador
Ae (e/^f/e/d/)|e^f g>e|dG BG/B/|(dG) G>B|Ae (e/^f/e/d/)|
e^f g>a|(b>a) ge/d/|BA Az::ae (a/b/c'/b/)|ae e>^f|
gd (g/a/b/a/)|gd dz|g>a (b/a/g/^f/)|(g/^f/g/a/) b>a|ge ed/B/|BA Az:||
